X: 419
T:Missa Mi mi / Credo
N: Derived from Jos9901c-Missa_Mi_mi-Credo.krn
C: Josquin des Prez
%%abc-version 2.0
%%abcx-abcm2ps-target-version 5.9.1 (29 Sep 2008)
%%abc-creator hum2abc beta
%%abcx-conversion-date 2019/02/12 16:15:56
%%abc-edited-by Jesse Rodin
%%abc-edited-by Jesse Rodin (8/14/2012)
%%abcx-initial-encoding-date 2012/08/14/
%%humdrum-veritas 2573301079
%%humdrum-veritas-data 922663055
%%linebreak <none>
%%barnumbers 0
L: 1/4
M: 3/1
Q: 1/2=120
%%staves [1 2 3 4]
V: 1 clef=treble
V: 2 clef=treble-8
V: 3 clef=bass
V: 4 clef=bass
K: C
[V:1] E12- | 
[V:2] B12 | 
[V:3] z12 | 
[V:4] E,12 | 
[V:1] E12 | 
[V:2] c8B4 | 
[V:3] A,4A,2A,2G,2F,E, | 
[V:4] A,,8z4 | 
[V:1] F12 | 
[V:2] z4z4d4 | 
[V:3] D,2F,3E,D,C,D,4 | 
[V:4] z12 | 
[V:1] E4z4E4 | 
[V:2] c2B4AGA3B | 
[V:3] E,8z4 | 
[V:4] z12 | 
[V:1] E2D4G3FE2 | 
[V:2] c2d3cBAG2c2- | 
[V:3] z12 | 
[V:4] z12 | 
[V:1] D4C4z2C2- | 
[V:2] c2B2c2BAG2A2- | 
[V:3] z12 | 
[V:4] z12 | 
[V:1] CDEFG2E2F2G2 | 
[V:2] A2GFE2G2A2B2 | 
[V:3] z12 | 
[V:4] z12 | 
[V:1] A3GFEE4D2 | 
[V:2] c3BA2G2F4 | 
[V:3] z12 | 
[V:4] z12 | 
[V:1] E12 | 
[V:2] E8z4 | 
[V:3] z4z4E,4 | 
[V:4] A,,4A,,2A,,4A,,2 | 
[V:1] z12 | 
[V:2] z12 | 
[V:3] E,2E,4E,2G,4 | 
[V:4] C,4C,2C,4B,,A,, | 
[V:1] z12 | 
[V:2] z12 | 
[V:3] z2G,4F,2E,2D,2 | 
[V:4] G,,2C,4D,2E,2F,2- | 
[V:1] z12 | 
[V:2] z12 | 
[V:3] F,4G,2A,4B,2 | 
[V:4] F,2E,D,C,2F,4G,2 | 
[V:1] z4z4z4 | 
[V:2] z12 | 
[V:3] C2B,3A,A,4^G,2 | 
[V:4] E,4D,2C,2B,,4 | 
[V:1] C4C2C4E2 | 
[V:2] E4F2E4C2 | 
[V:3] A,12 | 
[V:4] A,,12 | 
[V:1] D2D2C2C2G2G2 | 
[V:2] G2G2A2A2G3F/E/ | 
[V:3] z12 | 
[V:4] z12 | 
[V:1] A2A2G3F/E/F4 | 
[V:2] F2F2E2e4d2 | 
[V:3] z12 | 
[V:4] z12 | 
[V:1] E2E2G3AG2c2 | 
[V:2] c3B/A/B2c2G2A2 | 
[V:3] z12 | 
[V:4] z12 | 
[V:1] B2A3GG4^F2 | 
[V:2] G2c4B2A4 | 
[V:3] z12 | 
[V:4] z4z4D,4 | 
[V:1] G8z4 | 
[V:2] G8z4 | 
[V:3] z4z4A,3B, | 
[V:4] E,4E,4F,4 | 
[V:1] z12 | 
[V:2] z12 | 
[V:3] C2B,4G,2A,2G,2- | 
[V:4] E,2G,4F,E,F,2E,2- | 
[V:1] z12 | 
[V:2] z12 | 
[V:3] G,2E,2F,2E,4C,2 | 
[V:4] E,2D,C,D,2C,4B,,A,, | 
[V:1] z12 | 
[V:2] z12 | 
[V:3] D,2C,2E,2F,2G,4 | 
[V:4] B,,2C,3B,,A,,2G,,3A,, | 
[V:1] z12 | 
[V:2] z12 | 
[V:3] G,3A,B,2C4B,2 | 
[V:4] B,,2C,2D,2E,2F,2G,2 | 
[V:1] z4z4D4 | 
[V:2] z12 | 
[V:3] A,2G,4C4B,2 | 
[V:4] F,2E,2C,4D,4 | 
[V:1] E6F2G4 | 
[V:2] z4z4G4 | 
[V:3] C12- | 
[V:4] C,8C,4 | 
[V:1] A4G2A4GF | 
[V:2] F2c3BAGF4 | 
[V:3] C12 | 
[V:4] F,4E,2F,4E,D, | 
[V:1] E4E4A4 | 
[V:2] G4G2c4d2 | 
[V:3] C4C4A,4 | 
[V:4] C,4C,4F,4 | 
[V:1] G4G4G4 | 
[V:2] e6dcB2c2 | 
[V:3] B,4B,2G,4G,2 | 
[V:4] E,8E,4 | 
[V:1] F2D4E2F2ED | 
[V:2] d3cBAA4^G2 | 
[V:3] A,3G,F,2E,2D,4 | 
[V:4] D,6C,2B,,4 | 
[V:1] C8C4 | 
[V:2] A8A4 | 
[V:3] E,6F,6 | 
[V:4] A,,8A,,4 | 
[V:1] B,3CD2E2D2E2 | 
[V:2] D2E2D2G3FE2- | 
[V:3] G,12- | 
[V:4] G,,3A,,B,,2C,2B,,2C,2- | 
[V:1] C2D4C4B,2 | 
[V:2] E2D2E2F2G4 | 
[V:3] G,4C,4D,4 | 
[V:4] C,2B,,2A,,4G,,4 | 
[V:1] C4z4C4 | 
[V:2] G4G4E3F | 
[V:3] C,4z4C,4 | 
[V:4] z4G,,4C,4- | 
[V:1] C2C4C2D4 | 
[V:2] G2A4A2A3B | 
[V:3] E,8F,4 | 
[V:4] C,2A,,3B,,C,A,,D,4 | 
[V:1] E2F2EDD4^C2 | 
[V:2] c2dBc2A3GA2 | 
[V:3] E,2D,2G,2F,2E,4 | 
[V:4] A,,2D,2C,2D,2A,,4 | 
[V:1] D4z4D4 | 
[V:2] F6D2F2G2 | 
[V:3] D,8z4 | 
[V:4] z2D,4D,2D,2C,B,, | 
[V:1] C6A,2B,4 | 
[V:2] A2GFE2A4^G2 | 
[V:3] E,8z2E,2 | 
[V:4] A,,8z4 | 
[V:1] A,3B,CDE3FGA | 
[V:2] A8E4 | 
[V:3] F,2E,2C,4z2C2 | 
[V:4] A,,8z4 | 
[V:1] B2c3BA4^G2 | 
[V:2] z2A2c2d2e4 | 
[V:3] D2C2A,4B,4 | 
[V:4] z2A,3G,F,2E,4 | 
[V:1] A8z2A2- | 
[V:2] z2E4F2E2D2 | 
[V:3] A,12- | 
[V:4] A,,3B,,C,2D,2A,,2D,2- | 
[V:1] AGE2F2EDC3D | 
[V:2] F2E2D4E3F | 
[V:3] A,12 | 
[V:4] D,2C,2D,4A,,4 | 
[V:1] E2F2G2A3GF2 | 
[V:2] G2A2B2c2A2d2 | 
[V:3] z12 | 
[V:4] z12 | 
[V:1] E2D2G2F2E4 | 
[V:2] c2f2e2d4^c2 | 
[V:3] z12 | 
[V:4] z4z4z2A,,2 | 
[V:1] D4z4z4 | 
[V:2] d4z4z2A2 | 
[V:3] z2D,2E,4F,2F,2 | 
[V:4] B,,4C,2C,2D,4 | 
[V:1] z2D2E4F2F2 | 
[V:2] B4c2c2d4 | 
[V:3] G,4E,4D,4 | 
[V:4] B,,4A,,4z4 | 
[V:1] G2G2A2GFE4 | 
[V:2] B4A4z2c2- | 
[V:3] z4E,4E,2E,2- | 
[V:4] E,4A,,4A,,2A,,2 | 
[V:1] z2E2D2D2C4 | 
[V:2] cBA4^G2A4 | 
[V:3] E,2C,2D,2D,2E,3F, | 
[V:4] C,2C,2B,,4A,,4 | 
[V:1] B,2C2D2E4F2 | 
[V:2] E4z2G4F2 | 
[V:3] G,2A,2B,2C3B,A,2 | 
[V:4] z2A,,2G,,2C,4D,2 | 
[V:1] G2F3EE4D2 | 
[V:2] E2c4c2A3B | 
[V:3] G,2A,2E,4F,4 | 
[V:4] E,2A,,2C,4D,4 | 
[V:1] E12- | 
[V:2] c4B8- | 
[V:3] E,12- | 
[V:4] A,,4z4z4 | 
[V:1] E12 ||  
[V:2] B12 ||  
[V:3] E,12 ||  
[V:4] E,4E,8 ||  
[V:1]  [K:C] [K:clef=treble][M:2/1]E4E2E2 | 
[V:2]  [K:C] [K:clef=treble-8][M:2/1]z8 | 
[V:3]  [K:C] [K:clef=bass][M:2/1]z8 | 
[V:4]  [K:C] [K:clef=bass][M:2/1]z8 | 
[V:1] G4G4 | 
[V:2] E4E2E2 | 
[V:3] z8 | 
[V:4] z8 | 
[V:1] D4z2D2 | 
[V:2] G4G4 | 
[V:3] z8 | 
[V:4] z8 | 
[V:1] A6GF | 
[V:2] D4z2D2 | 
[V:3] z8 | 
[V:4] z8 | 
[V:1] E2F4ED | 
[V:2] A6GF | 
[V:3] z8 | 
[V:4] z8 | 
[V:1] C4D4 | 
[V:2] E2F4ED | 
[V:3] z8 | 
[V:4] z8 | 
[V:1] E3DC2B,2 | 
[V:2] C3DEFG2 | 
[V:3] z8 | 
[V:4] z8 | 
[V:1] A,2G,2F,4 | 
[V:2] F2E4D2 | 
[V:3] z8 | 
[V:4] z8 | 
[V:1] E,4z2E2- | 
[V:2] E4G4 | 
[V:3] z8 | 
[V:4] z8 | 
[V:1] E2D2E4 | 
[V:2] F4E4 | 
[V:3] z8 | 
[V:4] z8 | 
[V:1] G4F4 | 
[V:2] z2E4D2 | 
[V:3] z8 | 
[V:4] z8 | 
[V:1] E2DCB,2C2- | 
[V:2] E3FG2A2 | 
[V:3] z8 | 
[V:4] z8 | 
[V:1] CB,E4D2 | 
[V:2] E2G2F4 | 
[V:3] z8 | 
[V:4] z8 | 
[V:1] E4z4 | 
[V:2] E4z4 | 
[V:3] z8 | 
[V:4] z8 | 
[V:1] C8 | 
[V:2] G8 | 
[V:3] E,8 | 
[V:4] z8 | 
[V:1] D8 | 
[V:2] A8 | 
[V:3] F,8 | 
[V:4] z8 | 
[V:1] E8 | 
[V:2] B8 | 
[V:3] E,8 | 
[V:4] z8 | 
[V:1] E8 | 
[V:2] c6BA | 
[V:3] C,8 | 
[V:4] z8 | 
[V:1] z4E4- | 
[V:2] BAGFE4 | 
[V:3] G,8 | 
[V:4] z4C,4 | 
[V:1] E2D2D4- | 
[V:2] F4G4 | 
[V:3] F,4D,4 | 
[V:4] D,4B,,4 | 
[V:1] D2^C2C2B,C | 
[V:2] A8 | 
[V:3] E,8 | 
[V:4] A,,4A,,4 | 
[V:1] D4D4 | 
[V:2] z4A4 | 
[V:3] D,8 | 
[V:4] D,8 | 
[V:1] E4D4 | 
[V:2] c4B4 | 
[V:3] z8 | 
[V:4] z8 | 
[V:1] B,4C2C2 | 
[V:2] G4A2A2 | 
[V:3] z8 | 
[V:4] z8 | 
[V:1] B,2A,2D4 | 
[V:2] G2A2F4 | 
[V:3] z4D,4 | 
[V:4] z8 | 
[V:1] E4z4 | 
[V:2] E4z4 | 
[V:3] G,3A,B,2C2- | 
[V:4] z4E,4 | 
[V:1] z8 | 
[V:2] z8 | 
[V:3] C2B,A,G,2C2- | 
[V:4] F,4E,4 | 
[V:1] z8 | 
[V:2] z8 | 
[V:3] CB,A,2G,2A,2- | 
[V:4] C,2D,2E,2F,2- | 
[V:1] z4z2E2 | 
[V:2] z8 | 
[V:3] A,2G,F,E,4 | 
[V:4] F,E,D,4^C,2 | 
[V:1] F4E2E2 | 
[V:2] z4z2E2 | 
[V:3] D,4C,4 | 
[V:4] D,4z4 | 
[V:1] A4G2FE | 
[V:2] F4E2E2 | 
[V:3] z8 | 
[V:4] z8 | 
[V:1] F4E2E2- | 
[V:2] A4G2FE | 
[V:3] z8 | 
[V:4] z8 | 
[V:1] E2D2E4 | 
[V:2] F4E4 | 
[V:3] z4z2A,2 | 
[V:4] z4A,,4 | 
[V:1] z8 | 
[V:2] z8 | 
[V:3] A,2A,2G,4 | 
[V:4] C,2D,2E,4 | 
[V:1] z8 | 
[V:2] z8 | 
[V:3] A,4C4 | 
[V:4] F,4E,4 | 
[V:1] z8 | 
[V:2] z8 | 
[V:3] B,2A,3G,F,E, | 
[V:4] D,2F,4E,2- | 
[V:1] z8 | 
[V:2] z8 | 
[V:3] F,4E,4 | 
[V:4] E,2D,2E,4 | 
[V:1] z4E4 | 
[V:2] c8 | 
[V:3] z4G,4 | 
[V:4] z4C,4 | 
[V:1] E4E4 | 
[V:2] c4c4 | 
[V:3] G,4G,4 | 
[V:4] C,4C,4 | 
[V:1] D4D4 | 
[V:2] A4B4 | 
[V:3] F,4G,4 | 
[V:4] D,4G,,4 | 
[V:1] C4c4 | 
[V:2] A4z2e2- | 
[V:3] E,4z2E,2 | 
[V:4] A,,4z2A,,2 | 
[V:1] B4A4 | 
[V:2] e2e4d2 | 
[V:3] G,4A,4 | 
[V:4] E,4F,4 | 
[V:1] G4G4 | 
[V:2] e4z2E2 | 
[V:3] B,2G,4C2- | 
[V:4] E,6C,2 | 
[V:1] F4E4 | 
[V:2] F4G4 | 
[V:3] C2B,2C4 | 
[V:4] D,4C,4 | 
[V:1] E4D2G2- | 
[V:2] G4d4 | 
[V:3] z2C2B,4 | 
[V:4] C,4G,,2G,,2 | 
[V:1] G2F2G4 | 
[V:2] d4B4 | 
[V:3] A,4G,4- | 
[V:4] D,2D,2E,2E,2 | 
[V:1] G4A4 | 
[V:2] c2c4BA | 
[V:3] G,2E,2F,4 | 
[V:4] C,4z4 | 
[V:1] G2E2F2G2- | 
[V:2] B2c2d2c2- | 
[V:3] E,4D,2E,2- | 
[V:4] z8 | 
[V:1] GFE4D2 | 
[V:2] c2B4A2 | 
[V:3] E,2G,2F,4 | 
[V:4] z8 | 
[V:1] E4z4 | 
[V:2] B4z2G2 | 
[V:3] E,4z4 | 
[V:4] z4E,4 | 
[V:1] z8 | 
[V:2] G2G2G2G2 | 
[V:3] z8 | 
[V:4] E,2E,2E,2E,2 | 
[V:1] z4z2E2 | 
[V:2] A2B2c4 | 
[V:3] z4z2G,2 | 
[V:4] D,2D,2C,4 | 
[V:1] F2G2E4 | 
[V:2] z4z2G2 | 
[V:3] A,2B,2C4 | 
[V:4] z4z2C,2- | 
[V:1] z4z2C2 | 
[V:2] A2G4^F2 | 
[V:3] z8 | 
[V:4] C,2B,,2A,,4 | 
[V:1] B,3CD2E2- | 
[V:2] G4z4 | 
[V:3] z4G,4 | 
[V:4] G,,4z2G,,2 | 
[V:1] EDC4B,2 | 
[V:2] C4G4 | 
[V:3] E,2F,2D,2D,2 | 
[V:4] A,,2A,,2G,,2G,,2 | 
[V:1] C4z2C2 | 
[V:2] E4F2ED | 
[V:3] C,4z2C2 | 
[V:4] C,4z4 | 
[V:1] E4F4 | 
[V:2] C4z4 | 
[V:3] C4A,4 | 
[V:4] z8 | 
[V:1] G4E2F2 | 
[V:2] z8 | 
[V:3] B,4C2D2 | 
[V:4] z8 | 
[V:1] D2G4^F2 | 
[V:2] z4z2D2 | 
[V:3] B,2C2A,4 | 
[V:4] z8 | 
[V:1] G4z4 | 
[V:2] E2DCE2D2- | 
[V:3] G,4z4 | 
[V:4] z4G,,4 | 
[V:1] z8 | 
[V:2] D2G4^F2 | 
[V:3] z8 | 
[V:4] G,,4A,,2A,,2 | 
[V:1] z4G4 | 
[V:2] G4z4 | 
[V:3] z4G,4 | 
[V:4] G,,4z4 | 
[V:1] F2E4DC | 
[V:2] z8 | 
[V:3] A,2G,4C2- | 
[V:4] z8 | 
[V:1] D2D2E4 | 
[V:2] z2G4G2 | 
[V:3] C2B,2C4 | 
[V:4] G,,4C,4 | 
[V:1] z8 | 
[V:2] A2B2c2d2- | 
[V:3] z8 | 
[V:4] C,2D,2E,2F,2 | 
[V:1] z8 | 
[V:2] dcc4B2 | 
[V:3] z8 | 
[V:4] G,2F,E,D,4 | 
[V:1] z4F4 | 
[V:2] c4c4 | 
[V:3] z4A,4 | 
[V:4] C,4F,4 | 
[V:1] F2F4F2 | 
[V:2] c2c4c2 | 
[V:3] A,2A,4A,2 | 
[V:4] F,2F,4F,2 | 
[V:1] F2F2E4 | 
[V:2] c2c2c4 | 
[V:3] A,2A,2G,4 | 
[V:4] F,2F,2C,4 | 
[V:1] D2F4ED | 
[V:2] _B2A4GF | 
[V:3] F,4z2D,2 | 
[V:4] D,4F,4 | 
[V:1] C2D4^C2 | 
[V:2] G2A4G2 | 
[V:3] E,2F,2G,4 | 
[V:4] E,2D,2E,4 | 
[V:1] D4z2D2 | 
[V:2] A4z2B2 | 
[V:3] F,4z4 | 
[V:4] D,8 | 
[V:1] E2F2G4 | 
[V:2] c2A2G4 | 
[V:3] z4z2D,2 | 
[V:4] z4z2B,,2 | 
[V:1] z8 | 
[V:2] z8 | 
[V:3] E,2F,2G,4 | 
[V:4] C,2A,,2G,,4 | 
[V:1] z2E4E2 | 
[V:2] z2c4c2 | 
[V:3] z2G,4G,2 | 
[V:4] z2C,4C,2 | 
[V:1] E2E2D4 | 
[V:2] c2c2B4 | 
[V:3] G,2G,2G,4 | 
[V:4] C,2C,2G,,4 | 
[V:1] F4F4 | 
[V:2] A4d4 | 
[V:3] F,4z4 | 
[V:4] D,4D,4 | 
[V:1] G4A4 | 
[V:2] B2c4d2- | 
[V:3] z4A,4 | 
[V:4] E,4F,4 | 
[V:1] _B2A3GG2- | 
[V:2] d2d4c2 | 
[V:3] G,2F,2G,2G,2 | 
[V:4] G,2D,2E,4 | 
[V:1] G2^F2G4 | 
[V:2] d8 | 
[V:3] A,4G,4 | 
[V:4] D,4G,,4 | 
[V:1] z8 | 
[V:2] z8 | 
[V:3] z2G,4G,2 | 
[V:4] z2G,4E,2 | 
[V:1] z8 | 
[V:2] z8 | 
[V:3] A,2B,2C4 | 
[V:4] F,2G,2C,3D, | 
[V:1] z8 | 
[V:2] z8 | 
[V:3] C4C2DC | 
[V:4] E,2F,2E,2D,2- | 
[V:1] z8 | 
[V:2] z8 | 
[V:3] B,A,A,4^G,2 | 
[V:4] D,2C,2B,,4 | 
[V:1] z4A4 | 
[V:2] z4d4 | 
[V:3] A,4A,4 | 
[V:4] A,,4D,4 | 
[V:1] A2A4A2 | 
[V:2] d2d4d2 | 
[V:3] A,2A,4A,2 | 
[V:4] D,2D,4D,2 | 
[V:1] F2F2F2F2 | 
[V:2] d2d2A2B2 | 
[V:3] A,2A,2F,2F,2 | 
[V:4] D,2D,2D,2D,2 | 
[V:1] E4E2E2- | 
[V:2] c4c2c2- | 
[V:3] G,4G,2G,2- | 
[V:4] C,4C,2C,2- | 
[V:1] E2E2E2E2 | 
[V:2] c2c2c2c2 | 
[V:3] G,2G,2G,2G,2 | 
[V:4] C,2C,2C,2C,2 | 
[V:1] F4F4 | 
[V:2] A4A4 | 
[V:3] F,4F,4 | 
[V:4] D,4D,4 | 
[V:1] D4D4 | 
[V:2] A4A4 | 
[V:3] F,4F,4 | 
[V:4] D,4D,4 | 
[V:1] C4z2c2 | 
[V:2] A8 | 
[V:3] E,4z2E,2- | 
[V:4] A,,8 | 
[V:1] c4B4 | 
[V:2] z8 | 
[V:3] E,2F,2G,3F, | 
[V:4] z8 | 
[V:1] A3GF2E2 | 
[V:2] z8 | 
[V:3] D,2A,3B,C2 | 
[V:4] z8 | 
[V:1] D2C2B,4 | 
[V:2] z4E4 | 
[V:3] B,2A,4^G,2 | 
[V:4] z8 | 
[V:1] A,4z2A2 | 
[V:2] z2e2d2e2- | 
[V:3] A,4B,2C2- | 
[V:4] z8 | 
[V:1] G2A2B2c2- | 
[V:2] e2dcB2A2 | 
[V:3] C2B,A,G,2A,2- | 
[V:4] z8 | 
[V:1] c2B2A2B2- | 
[V:2] c2d2e2f2 | 
[V:3] A,2B,2C2D2 | 
[V:4] z8 | 
[V:1] BAA4^G2 | 
[V:2] e4z2e2- | 
[V:3] A,2C2B,4 | 
[V:4] A,,4E,4 | 
[V:1] A4z4 | 
[V:2] e2d2c2B2 | 
[V:3] A,4z4 | 
[V:4] F,4E,2E,2- | 
[V:1] z8 | 
[V:2] c2d2B2c2- | 
[V:3] z8 | 
[V:4] E,2D,2E,4- | 
[V:1] z8 | 
[V:2] c2BAB2A2- | 
[V:3] z8 | 
[V:4] E,2F,2G,2A,2- | 
[V:1] z8 | 
[V:2] A2d3cBA | 
[V:3] z8 | 
[V:4] A,G,F,E,D,2G,2- | 
[V:1] z4z2D2 | 
[V:2] G2c4B2 | 
[V:3] E,4F,4 | 
[V:4] G,2F,E,D,4 | 
[V:1] E2G4FE | 
[V:2] c4z2c2 | 
[V:3] G,4G,4 | 
[V:4] C,4z2C,2 | 
[V:1] D2E2F2ED | 
[V:2] d2c2A4 | 
[V:3] G,4F,4 | 
[V:4] B,,2C,2D,4 | 
[V:1] C4z2D2 | 
[V:2] A2G3FD2 | 
[V:3] E,4D,4 | 
[V:4] A,,2C,2B,,4 | 
[V:1] E2C2D4 | 
[V:2] z2E2F2G2 | 
[V:3] A,4_B,4 | 
[V:4] A,,2A,,4G,,2 | 
[V:1] C3DE2F2 | 
[V:2] E2F2E2A2 | 
[V:3] A,4A,4 | 
[V:4] A,,3B,,C,2D,2 | 
[V:1] E2D2E4 | 
[V:2] G2A2B4 | 
[V:3] z2A,4G,2 | 
[V:4] E,2F,2E,4 | 
[V:1] E8- | 
[V:2] c4z2c2- | 
[V:3] E,2A,4G,F, | 
[V:4] A,,4z2A,,2- | 
[V:1] E8- | 
[V:2] c2B2A4 | 
[V:3] E,8- | 
[V:4] A,,2G,,2A,,2G,,F,, | 
[V:1] E8 |]  
[V:2] B8 |]  
[V:3] E,8 |]  
[V:4] E,,8 |]  



